modules/coreui-icons-brand/icons/heroku.svg

<svg version="1.1" xmlns="http://www.w3.org/2000/svg" width="32" height="32" viewBox="0 0 32 32">
<title>heroku</title>
<path d="M27.479 0h-22.957c-1.604 0-2.881 1.281-2.881 2.88v26.24c0 1.599 1.277 2.88 2.881 2.88h22.957c1.6 0 2.881-1.281 2.881-2.88v-26.24c0-1.599-1.277-2.88-2.881-2.88zM28.76 29.12c0 0.719-0.563 1.281-1.281 1.281h-22.957c-0.719 0-1.281-0.563-1.281-1.281v-26.24c0-0.719 0.563-1.281 1.281-1.281h22.957c0.719 0 1.281 0.563 1.281 1.281zM8.839 27.197l3.599-3.197-3.599-3.197zM21.803 14.24c-0.641-0.641-1.839-1.437-3.839-1.437-2.161 0-4.401 0.557-6 1.119v-9.119h-3.204v13.837l2.24-1.041c0 0 3.683-1.677 6.88-1.677 1.599 0 2 0.881 2 1.677v9.599h3.203v-9.599c0.079-0.239 0.079-2-1.28-3.359zM17.563 10h3.197c1.437-1.683 2.161-3.36 2.401-5.197h-3.197c-0.324 1.837-1.125 3.515-2.401 5.197z"></path>
</svg>

<svg xmlns="http://www.w3.org/2000/svg" width="32" height="32" viewBox="0 0 32 32"><path d="M27.479 0H4.522a2.867 2.867 0 00-2.881 2.88v26.24A2.867 2.867 0 004.522 32h22.957a2.87 2.87 0 002.881-2.88V2.88A2.867 2.867 0 0027.479 0zm1.281 29.12c0 .719-.563 1.281-1.281 1.281H4.522a1.267 1.267 0 01-1.281-1.281V2.88c0-.719.563-1.281 1.281-1.281h22.957c.719 0 1.281.563 1.281 1.281zM8.839 27.197L12.438 24l-3.599-3.197zM21.803 14.24c-.641-.641-1.839-1.437-3.839-1.437-2.161 0-4.401.557-6 1.119V4.803H8.76V18.64L11 17.599s3.683-1.677 6.88-1.677c1.599 0 2 .881 2 1.677v9.599h3.203v-9.599c.079-.239.079-2-1.28-3.359zM17.563 10h3.197c1.437-1.683 2.161-3.36 2.401-5.197h-3.197C19.64 6.64 18.839 8.318 17.563 10z"/></svg>
